!!!!SEGMENT: pl-kk--kk-i-423--002-003_golabek-jakub--missa-2da-quoniam.krn
!!!cenid: 17xx:2560
!!!COM: Gołąbek, Jakub
!!!COM-rismID: pe30008748
!!!CDT: 1739-1789/03/30
!!!CNT: Polish
!!!OPR: Missa 2da
!!!OTL: Quoniam
!!!OMV: 003
!!!PDT:
!!!AGN: Sacred; Mass
!!!YEC: Copyright 2022 Narodowy Instytut Fryderyka Chopina (https://polishscores.org)
!!!YEM: License CC-BY-4.0 (https://creativecommons.org/licenses/by/4.0)
!!!SMS-siglum: PL-Kk
!!!SMS-shelfmark: Kk.I.423
!!!SMS-variant:
!!!SMS-altvar:
!!!SMS-shelfwork: 002-003 M
!!!NIFC-rismSourceID: 1001147334
!!!NIFC-rismChildID: 1001147343
!!!NIFC-islandoraID:
!!!URL-pdf-islandora: https://repozytorium.nifc.pl/islandora/object/pl-kk%3A10566/datastream/PDF/view
!!!URL-scan: https://polish.musicsources.pl/pl/lokalizacje/galeria/rekopisy/6034-masses/3 @EN{Scan on Polish Music Sources Website} @PL{Skany w portalu Dziedzictwo Muzyki Polskiej w otwartym dostępie}
!!!IIIF:
!!!ONB-nifc: UWAGA: C – skan 4-6, A – 8-10, T – 12-14, B – 16-18. Części Mszy: Kyrie, Et in terra, Quoniam, Sanctus (+Pleni i Osanna), Benedictus, Agnus Dei.
!!!AIN: 1 alto 1 bass 1 canto 1 tenor
!!!key:
**kern	**text	**kern	**text	**kern	**text	**text	**dynam	**kern	**text
*part4	*part4	*part3	*part3	*part2	*part2	*part2	*part2	*part1	*part1
*staff4	*staff4	*staff3	*staff3	*staff2	*staff2	*staff2	*	*staff1	*staff1
*I"Basso	*	*I"Tenore	*	*I"Alto	*	*	*	*I"Canto	*
*I'B.	*	*I'T.	*	*I'A.	*	*	*	*I'C.	*
*Ibass	*	*Itenor	*	*Ialto	*	*	*	*Icanto	*
*ICvox	*	*ICvox	*	*ICvox	*	*	*	*ICvox	*
*clefF4	*	*clefC4	*	*clefC3	*	*	*	*clefC1	*
*k[b-]	*	*k[b-]	*	*k[b-]	*	*	*	*k[b-]	*
*F:	*	*F:	*	*F:	*	*	*	*F:	*
*M2/2	*	*M2/2	*	*M2/2	*	*	*	*M2/2	*
*met(c|)	*	*met(c|)	*	*met(c|)	*	*	*	*met(c|)	*
=1	=1	=1	=1	=1	=1	=1	=1	=1	=1
4.F\	Quo-	4.A\	Quo-	4.f\	Quo-	.	.	4.cc\	Quo-
8E\	-ni-	8B-\	-ni-	8g\	-ni-	.	.	8b-\	-ni-
4F\	-am	4c\	-am	4a\	-am	.	.	4a\	-am
4F\	tu	4c\	tu	4a\	tu	.	.	4a\	tu
=2	=2	=2	=2	=2	=2	=2	=2	=2	=2
*	*	*	*	*	*	*	*	*2\right	*
4F\	so-	8c\L	so-	8a\L	so-	.	.	2cc\	so-
.	.	8B-\	.	8g\	.	.	.	.	.
4C\	.	8B-\	.	8g\	.	.	.	.	.
.	.	8A\J	.	8f\J	.	.	.	.	.
4F\	-lus	4A\	-lus	4f\	-lus	.	.	4cc\	-lus
4F\	tu	4c\	tu	4a\	tu	.	.	4r	.
!	!	!LO:LB:g=original	!	!	!	!	!	!	!
=3	=3	=3	=3	=3	=3	=3	=3	=3	=3
!	!	!	!	!	!	!	!	!LO:TX:a:t=1	!
*2\right	*	*	*	*	*	*	*	*	*
2F\	so-	4c\	so-	4a\	so-	.	.	1r	.
.	.	8d\L	.	8b-\L	.	.	.	.	.
.	.	8c\J	.	8a\J	.	.	.	.	.
4E\	-lus	8c\L	.	8a\L	.	.	.	.	.
.	.	8B-\J	.	8g\J	.	.	.	.	.
4F\	.	8B-\L	-lus	8g\L	-lus	.	.	.	.
.	.	8A\J	.	8f\J	.	.	.	.	.
=4	=4	=4	=4	=4	=4	=4	=4	=4	=4
4c\	San-	4A/	San-	4f\	San-	.	.	4cc\	San-
4C/	-ctus	4G/	-ctus	4e\	-ctus	.	.	4cc\	-ctus
2r	.	4r	.	4r	.	.	p	2r	.
.	.	8G/L	tu	8e\L	tu	.	.	.	.
.	.	8A/J	.	8f\J	.	.	.	.	.
=5	=5	=5	=5	=5	=5	=5	=5	=5	=5
2r	.	8B-\L	so-	8g\L	so-	.	.	2r	.
.	.	8A\J	.	8f\J	.	.	.	.	.
.	.	8G/L	-lus	8e\L	-lus	.	.	.	.
.	.	8A/J	.	8f\J	.	.	.	.	.
4r	.	8B-\L	Do-	8g\L	Do-	.	.	4r	.
.	.	8A\J	.	8f\J	.	.	.	.	.
4C/	tu	8B-\L	-mi-	8g\L	-mi-	.	.	4g\	tu
.	.	8G\J	.	8e\J	.	.	.	.	.
!	!	!	!	!LO:LB:g=original	!	!	!	!	!
=6	=6	=6	=6	=6	=6	=6	=6	=6	=6
*	*	*2\right	*	*2\right	*	*	*	*	*
8F\L	so-	2A\	-nus	2f\	-nus	.	.	8a\L	so-
8E\J	.	.	.	.	.	.	.	8g\	.
8F\L	.	.	.	.	.	.	.	8a\	.
8E\J	.	.	.	.	.	.	.	8g\J	.
8F\L	-lus	4r	.	4r	.	.	.	8a\L	-lus
8A\J	.	.	.	.	.	.	.	8cc\J	.
8G\L	al-	4c\	al-	8e\L	al-	.	.	8b-\L	al-
8F\J	.	.	.	8f\J	.	.	.	8a\J	.
!LO:PB:g=original	!	!	!	!	!	!	!	!	!
=7	=7	=7	=7	=7	=7	=7	=7	=7	=7
4.E\	-tis-	4.c\	-tis-	4.g\	-tis-	.	.	4.g\	-tis-
8D\	-si-	8c\	-si-	8f\	-ſi-	.	.	8g\	-ſi-
2C/	-mus	2c\	-mus	2e\	-mus	.	.	2b-\	-mus
=8	=8	=8	=8	=8	=8	=8	=8	=8	=8
4F\	Je-	8A\L	Je-	8f\L	Je-	.	.	4cc\	Je-
.	.	8c\J	.	8a\J	.	.	.	.	.
4B-\	-su	8d\L	-su	8b-\L	-su	.	.	4dd\	-su
.	.	8B-\J	.	8g\J	.	.	.	.	.
!	!	!	!	!	!	!	!	!LO:LB:g=original	!
4c\	Chri-	4A/	Chri-	4f\	Chri-	.	.	2cc\	Chri-
4C/	.	4G/	.	4e\	.	.	.	.	.
!	!	!LO:LB:g=original	!	!	!	!	!	!	!
=9	=9	=9	=9	=9	=9	=9	=9	=9	=9
2F\	-ste	2A/	-ste	2f\	-ste	.	.	2cc\	-ste
4r	.	4r	.	4r	.	.	.	4r	.
4C/	Cum	4G/	Cum	4e\	Cum	.	.	4cc\	Cum
=10	=10	=10	=10	=10	=10	=10	=10	=10	=10
4F\	San-	4A\	San-	4f\	San-	.	.	2.cc\	San-
4G\	.	4B-\	.	4e\	.	.	.	.	.
8B-\L	.	8d\L	.	4f\	.	.	.	.	.
8A\J	.	8c\J	.	.	.	.	.	.	.
8G\L	-cto	8B-\L	-cto	4f\	-cto	.	.	4cc\	-cto
8F\J	.	8A\J	.	.	.	.	.	.	.
=11	=11	=11	=11	=11	=11	=11	=11	=11	=11
4.C/	Spi-	4.G/	Spi-	4.e\	Spi-	.	.	4.cc\	spi-
8C/	-ri-	8G/	-ri-	8e\	-ri-	.	.	8cc\	-ri-
4C/	-tu	4G/	-tu	4e\	-tu	.	.	4cc\	-tu
4C/	in	4G/	in	4e\	in	.	.	4cc\	in
!	!	!	!	!LO:PB:g=original	!	!	!	!	!
=12	=12	=12	=12	=12	=12	=12	=12	=12	=12
4C\	glo-	4G/	glo-	4e\	glo-	Spi-	.	4cc\	glo-
8E\	-ri-	8G/	-ri-	8e\	-ri-	-ri-	.	8cc\	-ri-
8G\	-a	8G/	-a	8e\	-a	-tu	.	8cc\	-a
8B-\L	De-	4G/	De-	4e\	De-	.	.	4cc\	De-
8G\J	.	.	.	.	.	.	.	.	.
8E\L	-i	4G/	-i	4e\	-i	in	.	4cc\	-i
8C\J	.	.	.	.	.	.	.	.	.
!LO:LB:g=original	!	!	!	!	!	!	!	!	!
=13	=13	=13	=13	=13	=13	=13	=13	=13	=13
4F\	pa-	4A/	Pa-	4f\	Pa-	glo-	.	4cc\	pa-
4F\	-tris	4A/	-tris	4f\	-tris	-ria	.	4cc\	-tris
2r	.	2r	.	2r	.	.	.	2r	.
=14	=14	=14	=14	=14	=14	=14	=14	=14	=14
4E\	a-	2B-\	a-	4g\	a-	.	.	2cc\	a-
4C\	.	.	.	4e\	.	.	.	.	.
2F\	-men	2A\	-men	2f\	-men	.	.	2cc\	-men
=15	=15	=15	=15	=15	=15	=15	=15	=15	=15
4B-\	a-	4G\	a-	4f\	a-	.	.	2cc\	a-
4G\	.	4B-\	.	4g\	.	.	.	.	.
4F\	-men	4A\	-men	4a\	-men	.	.	2cc\	-men
4A\	a-	4c\	a-	4f\	a-	.	.	.	.
=16	=16	=16	=16	=16	=16	=16	=16	=16	=16
4B-\	.	2d\	.	2g\	.	.	.	2b-\	a-
4G\	.	.	.	.	.	.	.	.	.
4c\	.	2c\	.	2e\	.	.	.	2g\	.
4C/	.	.	.	.	.	.	.	.	.
=17	=17	=17	=17	=17	=17	=17	=17	=17	=17
1F	-men	1c	-men	2f\	-men	.	.	1a	-men
.	.	.	.	2r	.	.	.	.	.
==	==	==	==	==	==	==	==	==	==
*-	*-	*-	*-	*-	*-	*-	*-	*-	*-
!!!system-decoration: [(s1,s2,s3,s4)]
!!!ENC: Berenika Jozajtis
!!!END: 2024-02-14
!!!ENC: Leszek Kubiak
!!!END: 2024-08-04
